app/images/dist/icons/hot.svg

<svg width="30" height="30" viewBox="0 0 30 30" fill="none" xmlns="http://www.w3.org/2000/svg">
<path d="M21.7271 7.57699C21.6169 7.43109 21.4314 7.36342 21.253 7.40443C21.0748 7.44539 20.9372 7.58725 20.9018 7.7666L20.4893 9.85342L15.4101 0.247031C15.3298 0.0950977 15.172 0 15 0C14.9993 0 14.9986 0 14.9979 0C14.8252 0.000820313 14.6672 0.0975 14.5879 0.250898L7.55764 13.8505L6.70182 11.1404C6.64744 10.9681 6.49803 10.8431 6.31891 10.82C6.13979 10.7967 5.96348 10.8797 5.86709 11.0325C3.90303 14.1449 2.90723 16.7077 2.90723 18.6495C2.90723 21.8421 4.17057 24.7523 6.46463 26.844C8.69658 28.8792 11.7279 30 15 30C18.2722 30 21.3035 28.8792 23.5354 26.844C25.8295 24.7523 27.0929 21.8421 27.0929 18.6495C27.0929 16.0176 25.2876 12.2923 21.7271 7.57699Z" fill="#FF6C44"/>
<path d="M9 20.0241C9 16.7237 15 10 15 10C15 10 21 16.7237 21 20.0241C21 23.3245 18.3137 26 15 26C11.6863 26 9 23.3245 9 20.0241Z" fill="#FFD200"/>
</svg>

<svg width="30" height="30" fill="none" xmlns="http://www.w3.org/2000/svg"><path d="M21.727 7.577a.464.464 0 00-.825.19l-.413 2.086L15.41.247A.464.464 0 0015 0h-.002a.464.464 0 00-.41.25l-7.03 13.6-.856-2.71a.464.464 0 00-.835-.107c-1.964 3.112-2.96 5.675-2.96 7.617 0 3.192 1.264 6.102 3.558 8.194C8.697 28.879 11.728 30 15 30c3.272 0 6.303-1.12 8.535-3.156 2.294-2.092 3.558-5.002 3.558-8.195 0-2.631-1.805-6.357-5.366-11.072z" fill="#FF6C44"/><path d="M9 20.024C9 16.724 15 10 15 10s6 6.724 6 10.024c0 3.3-2.686 5.976-6 5.976s-6-2.675-6-5.976z" fill="#FFD200"/></svg>
